img/svg/placeholder-weapon.svg

<svg xmlns="http://www.w3.org/2000/svg" viewBox="0 0 512 512" style="height: 512px; width: 512px;"><g class="" transform="translate(0,0)" style=""><path d="m231.2 109.4 14.8 14.9-120.4 120.3-14.8-14.9zm-25.6 83.2 17.8 1.5-19.4 19.5-17.9-1.5zM336.7 109l21.1 4.5 16.4-16.42 15.4 15.42c-14 14.6-145.8 146.8-149.4 149.8l-77.5 173.9c-.8 1.7-.4 3.8 1 5.1l13.5 12.6c1.8 1.7 1.9 4.6.1 6.4l-31.2 31.3c-1.5 1.6-4 1.8-5.8.5l-82.2-57.4c-14.45-10.1-16.26-30.8-3.8-43.3zm117-89.92 12.3 12.2-33.6 33.7-2.1-2.1-31.2 31.1-8.4-8.5 31.1-31.1-1.7-1.7zM293.9 236.3l.1-.1zm0 0 10.3 10.3c-5 4.6-11.9 12.1-12 17.6.8 11.2 11.3 44.6 21.6 48.5l5.9-6c11.7-11.8 11-18.1 10.2-24.3-1.7-14.8-8-50.6-11.6-70.6l11.4-11.4c2.8 15.4 11.3 62.4 13.4 80.5 1.1 9.5 1 20-13.9 35.1-11.3 11.4-20.4 20.5-30.8 30.9 0 0-34.6-27.1-32.3-58.6.6-7.7-5.9-13-9.6-13.9 12.2-12.8 24.9-25.6 37.4-38.1zm86.8-83.2 51.9 51.8-14.8 14.9-51.9-51.9zM222.1 351.6l64.3 36-27.1 48.3-59.9-33.5z" fill="#fff" fill-opacity="1"></path></g></svg>

<svg width="512" height="512" viewBox="0 0 512 512" fill="none" xmlns="http://www.w3.org/2000/svg">
<path d="M231.2 109.4L246 124.3L125.6 244.6L110.8 229.7L231.2 109.4ZM205.6 192.6L223.4 194.1L204 213.6L186.1 212.1L205.6 192.6ZM336.7 109L357.8 113.5L374.2 97.0801L389.6 112.5C375.6 127.1 243.8 259.3 240.2 262.3L162.7 436.2C161.9 437.9 162.3 440 163.7 441.3L177.2 453.9C179 455.6 179.1 458.5 177.3 460.3L146.1 491.6C144.6 493.2 142.1 493.4 140.3 492.1L58.0999 434.7C43.6499 424.6 41.8399 403.9 54.2999 391.4L336.7 109ZM453.7 19.0801L466 31.2801L432.4 64.9801L430.3 62.8801L399.1 93.9801L390.7 85.4801L421.8 54.3801L420.1 52.6801L453.7 19.0801ZM293.9 236.3L304.2 246.6C299.2 251.2 292.3 258.7 292.2 264.2C293 275.4 303.5 308.8 313.8 312.7L319.7 306.7C331.4 294.9 330.7 288.6 329.9 282.4C328.2 267.6 321.9 231.8 318.3 211.8L329.7 200.4C332.5 215.8 341 262.8 343.1 280.9C344.2 290.4 344.1 300.9 329.2 316C317.9 327.4 308.8 336.5 298.4 346.9C298.4 346.9 263.8 319.8 266.1 288.3C266.7 280.6 260.2 275.3 256.5 274.4C268.7 261.6 281.4 248.8 293.9 236.3ZM380.7 153.1L432.6 204.9L417.8 219.8L365.9 167.9L380.7 153.1ZM222.1 351.6L286.4 387.6L259.3 435.9L199.4 402.4L222.1 351.6Z" fill="#444856"/>
</svg>
